Badges/Roblox-Styled/Original/link-documentation.svg

<svg width="144" height="32" viewBox="0 0 144 32" fill="none" xmlns="http://www.w3.org/2000/svg">
<g filter="url(#filter0_i_25_84)">
<rect width="144" height="32" rx="4" fill="#335FFF"/>
<path d="M14.4453 9.48438C14.9818 9.44271 15.5 9.48438 16 9.60938C16.5469 9.74479 17.0469 9.97656 17.5 10.3047V21.9922C16.8438 21.4974 16.1328 21.2552 15.3672 21.2656C14.9453 21.2708 14.5182 21.3542 14.0859 21.5156C13.6328 21.6875 13.1823 21.9453 12.7344 22.2891C12.5729 22.4193 12.388 22.4948 12.1797 22.5156C11.9922 22.5312 11.8073 22.5 11.625 22.4219C11.4479 22.349 11.3021 22.2344 11.1875 22.0781C11.0625 21.901 11 21.7031 11 21.4844V11.6172C11 11.3932 11.0677 11.1953 11.2031 11.0234C11.5312 10.6068 11.987 10.2604 12.5703 9.98438C13.1589 9.70312 13.7839 9.53646 14.4453 9.48438ZM18.5 10.2656C18.9479 9.96354 19.4401 9.75 19.9766 9.625C20.4661 9.51042 20.974 9.47396 21.5 9.51562C22.125 9.5625 22.7214 9.71094 23.2891 9.96094C23.8568 10.2109 24.3151 10.526 24.6641 10.9062L24.7969 11.0547C24.9323 11.2266 25 11.4245 25 11.6484V21.4844C25 21.7031 24.9375 21.901 24.8125 22.0781C24.6979 22.2344 24.5495 22.349 24.3672 22.4219C24.1901 22.5 24.0078 22.5312 23.8203 22.5156C23.612 22.4948 23.4271 22.4193 23.2656 22.2891C22.8229 21.9453 22.3724 21.6875 21.9141 21.5156C21.4818 21.3542 21.0547 21.2708 20.6328 21.2656C19.8672 21.2552 19.1562 21.4974 18.5 21.9922V10.2656Z" fill="white"/>
<path d="M37.355 12.3C39.555 12.3 41.084 13.466 41.084 16.15C41.084 18.834 39.555 20 37.355 20H34.814V12.3H37.355ZM36.31 18.548H37.421C38.664 18.548 39.544 17.8 39.544 16.15C39.544 14.5 38.664 13.752 37.421 13.752H36.31V18.548ZM44.7221 20.11C42.9731 20.11 41.8731 18.9 41.8731 17.118C41.8731 15.336 42.9731 14.126 44.7221 14.126C46.4711 14.126 47.5711 15.336 47.5711 17.118C47.5711 18.9 46.4711 20.11 44.7221 20.11ZM44.7331 18.812C45.5691 18.812 46.1411 18.196 46.1411 17.118C46.1411 16.04 45.5691 15.424 44.7331 15.424C43.8971 15.424 43.3031 16.04 43.3031 17.118C43.3031 18.196 43.8971 18.812 44.7331 18.812ZM51.2863 20.11C49.5483 20.11 48.4043 18.9 48.4043 17.118C48.4043 15.336 49.5483 14.126 51.2863 14.126C52.1883 14.126 53.0573 14.489 53.5633 15.138L52.6173 16.084C52.2983 15.699 51.8253 15.424 51.2533 15.424C50.4173 15.424 49.8343 16.04 49.8343 17.118C49.8343 18.196 50.4173 18.812 51.2533 18.812C51.8253 18.812 52.2983 18.537 52.6173 18.152L53.5633 19.098C53.0573 19.747 52.1883 20.11 51.2863 20.11ZM56.3504 20.11C55.1734 20.11 54.4584 19.241 54.4584 17.987V14.236H55.8664V17.481C55.8664 18.46 56.2734 18.812 56.9004 18.812C57.4174 18.812 57.9234 18.493 58.1544 18.042V14.236H59.5624V20H58.1544V19.186L57.9784 19.12C57.6484 19.725 57.1754 20.11 56.3504 20.11ZM62.4201 20H61.0121V14.236H62.4201V15.05L62.5961 15.116C62.8491 14.555 63.3221 14.126 64.0811 14.126C64.8621 14.126 65.3021 14.467 65.5991 15.05H65.7751C66.1931 14.522 66.6221 14.126 67.5131 14.126C68.6571 14.126 69.2841 14.962 69.2841 16.216V20H67.8761V16.447C67.8761 15.765 67.5681 15.424 66.9741 15.424C66.4571 15.424 66.0501 15.71 65.8521 16.117V20H64.4441V16.447C64.4441 15.765 64.1361 15.424 63.5751 15.424C63.0251 15.424 62.6181 15.71 62.4201 16.117V20ZM73.3088 20.11C71.5378 20.11 70.3828 18.911 70.3828 17.129C70.3828 15.347 71.5378 14.126 73.1878 14.126C74.9698 14.126 75.8608 15.347 75.8608 17.052V17.547H71.8018C71.9228 18.449 72.4948 18.834 73.3088 18.834C73.9028 18.834 74.3538 18.647 74.8048 18.273L75.6518 19.285C75.0358 19.857 74.1558 20.11 73.3088 20.11ZM73.1878 15.314C72.4838 15.314 72.0218 15.677 71.8458 16.403H74.4638C74.3758 15.71 73.9138 15.314 73.1878 15.314ZM78.3723 20H76.9643V14.236H78.3723V15.05L78.5483 15.116C78.8343 14.555 79.3513 14.126 80.2093 14.126C81.4853 14.126 82.1783 14.995 82.1783 16.293V20H80.7703V16.667C80.7703 15.798 80.3303 15.424 79.6373 15.424C79.0653 15.424 78.6033 15.743 78.3723 16.194V20ZM86.2105 18.812C86.5405 18.812 86.7935 18.768 87.0905 18.691V19.934C86.7495 20.044 86.4085 20.11 85.9905 20.11C84.6925 20.11 83.9335 19.373 83.9335 17.965V15.446H82.9875V14.236H83.9335V12.74H85.3415V14.236H86.9695V15.446H85.3415V17.943C85.3415 18.526 85.6935 18.812 86.2105 18.812ZM89.504 20.11C88.536 20.11 87.667 19.516 87.667 18.295C87.667 17.195 88.459 16.48 90.01 16.48H91.352V16.381C91.352 15.6 90.89 15.336 90.285 15.336C89.647 15.336 89.141 15.611 88.525 16.073L87.854 15.028C88.558 14.5 89.372 14.126 90.318 14.126C91.737 14.126 92.76 14.709 92.76 16.337V20H91.352V19.351L91.176 19.285C90.78 19.824 90.263 20.11 89.504 20.11ZM89.966 18.9C90.582 18.9 91.066 18.559 91.352 18.152V17.492H89.988C89.405 17.492 89.075 17.734 89.075 18.196C89.075 18.625 89.438 18.9 89.966 18.9ZM96.7486 18.812C97.0786 18.812 97.3316 18.768 97.6286 18.691V19.934C97.2876 20.044 96.9466 20.11 96.5286 20.11C95.2306 20.11 94.4716 19.373 94.4716 17.965V15.446H93.5256V14.236H94.4716V12.74H95.8796V14.236H97.5076V15.446H95.8796V17.943C95.8796 18.526 96.2316 18.812 96.7486 18.812ZM99.9541 13.4H98.4801V11.926H99.9541V13.4ZM99.9211 20H98.5131V14.236H99.9211V20ZM103.912 20.11C102.163 20.11 101.063 18.9 101.063 17.118C101.063 15.336 102.163 14.126 103.912 14.126C105.661 14.126 106.761 15.336 106.761 17.118C106.761 18.9 105.661 20.11 103.912 20.11ZM103.923 18.812C104.759 18.812 105.331 18.196 105.331 17.118C105.331 16.04 104.759 15.424 103.923 15.424C103.087 15.424 102.493 16.04 102.493 17.118C102.493 18.196 103.087 18.812 103.923 18.812ZM109.31 20H107.902V14.236H109.31V15.05L109.486 15.116C109.772 14.555 110.289 14.126 111.147 14.126C112.423 14.126 113.116 14.995 113.116 16.293V20H111.708V16.667C111.708 15.798 111.268 15.424 110.575 15.424C110.003 15.424 109.541 15.743 109.31 16.194V20Z" fill="white"/>
<path d="M127.625 11.1875C127.781 11.1875 127.914 11.2422 128.023 11.3516C128.133 11.4609 128.188 11.5938 128.188 11.75C128.188 11.9062 128.133 12.0391 128.023 12.1484C127.914 12.2578 127.781 12.3125 127.625 12.3125H124.062V20.1875H131.938V16.625C131.938 16.4688 131.992 16.3359 132.102 16.2266C132.211 16.1172 132.344 16.0625 132.5 16.0625C132.656 16.0625 132.789 16.1172 132.898 16.2266C133.008 16.3359 133.062 16.4688 133.062 16.625V20.375C133.062 20.543 133.02 20.6992 132.934 20.8438C132.852 20.9883 132.738 21.1016 132.594 21.1836C132.449 21.2695 132.293 21.3125 132.125 21.3125H123.875C123.707 21.3125 123.551 21.2695 123.406 21.1836C123.262 21.1016 123.146 20.9883 123.061 20.8438C122.979 20.6992 122.938 20.543 122.938 20.375V12.125C122.938 11.957 122.979 11.8008 123.061 11.6562C123.146 11.5117 123.262 11.3984 123.406 11.3164C123.551 11.2305 123.707 11.1875 123.875 11.1875H127.625ZM132.5 11.1875C132.656 11.1875 132.789 11.2422 132.898 11.3516C133.008 11.4609 133.062 11.5938 133.062 11.75V14C133.062 14.1562 133.008 14.2891 132.898 14.3984C132.789 14.5078 132.656 14.5625 132.5 14.5625C132.344 14.5625 132.211 14.5078 132.102 14.3984C131.992 14.2891 131.938 14.1562 131.938 14V13.1094L128.398 16.6484C128.289 16.7578 128.156 16.8125 128 16.8125C127.844 16.8125 127.711 16.7578 127.602 16.6484C127.492 16.5391 127.438 16.4062 127.438 16.25C127.438 16.0938 127.492 15.9609 127.602 15.8516L131.141 12.3125H130.25C130.094 12.3125 129.961 12.2578 129.852 12.1484C129.742 12.0391 129.688 11.9062 129.688 11.75C129.688 11.5938 129.742 11.4609 129.852 11.3516C129.961 11.2422 130.094 11.1875 130.25 11.1875H132.5Z" fill="white"/>
</g>
<defs>
<filter id="filter0_i_25_84" x="0" y="-2" width="144" height="34" filterUnits="userSpaceOnUse" color-interpolation-filters="sRGB">
<feFlood flood-opacity="0" result="BackgroundImageFix"/>
<feBlend mode="normal" in="SourceGraphic" in2="BackgroundImageFix" result="shape"/>
<feColorMatrix in="SourceAlpha" type="matrix" values="0 0 0 0 0 0 0 0 0 0 0 0 0 0 0 0 0 0 127 0" result="hardAlpha"/>
<feOffset dy="-2"/>
<feGaussianBlur stdDeviation="1.65"/>
<feComposite in2="hardAlpha" operator="arithmetic" k2="-1" k3="1"/>
<feColorMatrix type="matrix" values="0 0 0 0 1 0 0 0 0 1 0 0 0 0 1 0 0 0 0.11 0"/>
<feBlend mode="normal" in2="shape" result="effect1_innerShadow_25_84"/>
</filter>
</defs>
</svg>

<svg xmlns="http://www.w3.org/2000/svg" width="144" height="32" fill="none">
  <g filter="url(#a)">
    <rect width="144" height="32" fill="#335fff" rx="4"/>
    <path fill="#fff" d="M14.445 9.484q.805-.062 1.555.125a4.3 4.3 0 0 1 1.5.696v11.687q-.984-.742-2.133-.726a3.8 3.8 0 0 0-1.281.25q-.68.258-1.352.773-.242.195-.554.227a1.15 1.15 0 0 1-.555-.094 1.01 1.01 0 0 1-.625-.937v-9.868q0-.336.203-.594.492-.624 1.367-1.039a5.3 5.3 0 0 1 1.875-.5m4.055.782q.672-.453 1.477-.641.734-.172 1.523-.11a5.4 5.4 0 0 1 1.79.446q.85.375 1.374.945l.133.149q.203.258.203.593v9.836q0 .33-.187.594-.173.234-.446.344-.266.117-.547.094a1.03 1.03 0 0 1-.554-.227 5.2 5.2 0 0 0-1.352-.773 3.8 3.8 0 0 0-1.281-.25q-1.149-.016-2.133.726zM37.355 12.3c2.2 0 3.729 1.166 3.729 3.85S39.555 20 37.355 20h-2.541v-7.7zm-1.045 6.248h1.111c1.243 0 2.123-.748 2.123-2.398s-.88-2.398-2.123-2.398H36.31zm8.412 1.562c-1.749 0-2.849-1.21-2.849-2.992s1.1-2.992 2.85-2.992c1.748 0 2.848 1.21 2.848 2.992s-1.1 2.992-2.849 2.992m.011-1.298c.836 0 1.408-.616 1.408-1.694s-.572-1.694-1.408-1.694-1.43.616-1.43 1.694.594 1.694 1.43 1.694m6.553 1.298c-1.738 0-2.882-1.21-2.882-2.992s1.144-2.992 2.882-2.992c.902 0 1.771.363 2.277 1.012l-.946.946a1.76 1.76 0 0 0-1.364-.66c-.836 0-1.419.616-1.419 1.694s.583 1.694 1.42 1.694a1.76 1.76 0 0 0 1.363-.66l.946.946c-.506.649-1.375 1.012-2.277 1.012m5.064 0c-1.177 0-1.892-.869-1.892-2.123v-3.751h1.408v3.245c0 .979.407 1.331 1.034 1.331.517 0 1.023-.319 1.254-.77v-3.806h1.408V20h-1.408v-.814l-.176-.066c-.33.605-.803.99-1.628.99m6.07-.11h-1.408v-5.764h1.408v.814l.176.066c.253-.561.726-.99 1.485-.99.781 0 1.221.341 1.518.924h.176c.418-.528.847-.924 1.738-.924 1.144 0 1.771.836 1.771 2.09V20h-1.408v-3.553c0-.682-.308-1.023-.902-1.023-.517 0-.924.286-1.122.693V20h-1.408v-3.553c0-.682-.308-1.023-.869-1.023-.55 0-.957.286-1.155.693zm10.889.11c-1.771 0-2.926-1.199-2.926-2.981s1.155-3.003 2.805-3.003c1.782 0 2.673 1.221 2.673 2.926v.495H71.8c.122.902.694 1.287 1.508 1.287.594 0 1.045-.187 1.496-.561l.847 1.012c-.616.572-1.496.825-2.343.825m-.121-4.796c-.704 0-1.166.363-1.342 1.089h2.618c-.088-.693-.55-1.089-1.276-1.089M78.372 20h-1.408v-5.764h1.408v.814l.176.066c.286-.561.803-.99 1.661-.99 1.276 0 1.97.869 1.97 2.167V20H80.77v-3.333c0-.869-.44-1.243-1.133-1.243-.572 0-1.034.319-1.265.77zm7.838-1.188c.33 0 .584-.044.88-.121v1.243c-.34.11-.681.176-1.1.176-1.297 0-2.056-.737-2.056-2.145v-2.519h-.947v-1.21h.947V12.74h1.407v1.496h1.629v1.21h-1.63v2.497c0 .583.353.869.87.869m3.294 1.298c-.968 0-1.837-.594-1.837-1.815 0-1.1.792-1.815 2.343-1.815h1.342v-.099c0-.781-.462-1.045-1.067-1.045-.638 0-1.144.275-1.76.737l-.671-1.045c.704-.528 1.518-.902 2.464-.902 1.419 0 2.442.583 2.442 2.211V20h-1.408v-.649l-.176-.066c-.396.539-.913.825-1.672.825m.462-1.21c.616 0 1.1-.341 1.386-.748v-.66h-1.364c-.583 0-.913.242-.913.704 0 .429.363.704.891.704m6.783-.088c.33 0 .583-.044.88-.121v1.243c-.341.11-.682.176-1.1.176-1.298 0-2.057-.737-2.057-2.145v-2.519h-.946v-1.21h.946V12.74h1.408v1.496h1.628v1.21H95.88v2.497c0 .583.352.869.869.869m3.205-5.412H98.48v-1.474h1.474zm-.033 6.6h-1.408v-5.764h1.408zm3.991.11c-1.749 0-2.849-1.21-2.849-2.992s1.1-2.992 2.849-2.992 2.849 1.21 2.849 2.992-1.1 2.992-2.849 2.992m.011-1.298c.836 0 1.408-.616 1.408-1.694s-.572-1.694-1.408-1.694-1.43.616-1.43 1.694.594 1.694 1.43 1.694M109.31 20h-1.408v-5.764h1.408v.814l.176.066c.286-.561.803-.99 1.661-.99 1.276 0 1.969.869 1.969 2.167V20h-1.408v-3.333c0-.869-.44-1.243-1.133-1.243-.572 0-1.034.319-1.265.77zm18.315-8.812q.234 0 .398.164a.54.54 0 0 1 .165.398.54.54 0 0 1-.165.398.54.54 0 0 1-.398.165h-3.563v7.874h7.876v-3.562a.54.54 0 0 1 .164-.398.54.54 0 0 1 .398-.165q.234 0 .398.165a.54.54 0 0 1 .164.398v3.75a.9.9 0 0 1-.128.469.9.9 0 0 1-.34.34.9.9 0 0 1-.469.128h-8.25a.9.9 0 0 1-.469-.128.9.9 0 0 1-.345-.34.93.93 0 0 1-.123-.469v-8.25q0-.252.123-.469a.9.9 0 0 1 .345-.34.9.9 0 0 1 .469-.129zm4.875 0q.234 0 .398.164a.54.54 0 0 1 .164.398V14a.54.54 0 0 1-.164.398.54.54 0 0 1-.398.165.54.54 0 0 1-.398-.165.54.54 0 0 1-.164-.398v-.89l-3.54 3.538a.54.54 0 0 1-.398.165.54.54 0 0 1-.398-.165.54.54 0 0 1-.164-.398.54.54 0 0 1 .164-.398l3.539-3.54h-.891a.54.54 0 0 1-.398-.164.54.54 0 0 1-.164-.398.54.54 0 0 1 .164-.398.54.54 0 0 1 .398-.165z"/>
  </g>
  <defs>
    <filter id="a" width="144" height="34" x="0" y="-2" color-interpolation-filters="sRGB" filterUnits="userSpaceOnUse">
      <feFlood flood-opacity="0" result="BackgroundImageFix"/>
      <feBlend in="SourceGraphic" in2="BackgroundImageFix" result="shape"/>
      <feColorMatrix in="SourceAlpha" result="hardAlpha" values="0 0 0 0 0 0 0 0 0 0 0 0 0 0 0 0 0 0 127 0"/>
      <feOffset dy="-2"/>
      <feGaussianBlur stdDeviation="1.65"/>
      <feComposite in2="hardAlpha" k2="-1" k3="1" operator="arithmetic"/>
      <feColorMatrix values="0 0 0 0 1 0 0 0 0 1 0 0 0 0 1 0 0 0 0.11 0"/>
      <feBlend in2="shape" result="effect1_innerShadow_25_84"/>
    </filter>
  </defs>
</svg>
